rospo-icon-theme-classic-common/16x16/apps/iridium-browser.svg

<svg height="16" viewBox="0 0 16 16" width="16" xmlns="http://www.w3.org/2000/svg"><g transform="matrix(1.25 0 0 -1.25 0 16.00033)"><path d="m5.653125 12.800264c-.194115.001693-.3968725-.012461-.60625-.046875-1.8610367-.304325-3.0227135-1.974777-3.18125-3.7171875-.0729078-.0372046-.1495183-.0627336-.221875-.1015625-.5821079-.3124731-.9123297-.9505709-.83125-1.60625.06465256-.5197555.188289-1.1462384.4265625-1.828125.1219717-.3491518.2743703-.710112.4609375-1.0781248v-.00156c.2152266-.4258576.4791146-.857336.796875-1.2828152.1019177-.1368512.2076804-.2709328.31875-.4031248 1.1793258-1.40826 2.5586668-2.1900616 3.5984375-2.6156248.5734444-.2346678 1.2308244-.11719159 1.6874999.3015624-.043555-.0399232.020721.0198776.01875.0171872l.0171876.0140624.0109376.0109376c.2883696.2522704.5902832.5478896.8921872.8953128.00792.00929.015733.018661.023438.028125-.0005712-.0006888.011262.014244.0125.015625l.046875.05625c.022674.024825.04456.050358.065625.076562.00732.00921.042909.051538.1015624.125l.00625.00781c.3432632.4355984.6738832.9381216.9640628 1.5109376.01885.03656.04137.081254.06875.1390624.152042.313768.29179.6486488.4125 1.0062504v.00156c.0053.015554.01624.046566.02813.08125.0023.00678.0037.00809.0062.015626.0061.018643.01181.037396.01719.05625l.0047.01875c.0043.013486.0085.027029.0125.040625.0076.030005.01442.060226.02031.090625.08863.2983217.166191.5941902.21875.8765627l.0031.00938c.0034.017135.0065.034325.0094.051563.01269.06976.01765.1051648.02187.1359375.05685.3422188.09109.672825.10625.990625v.01875c.000561.015482.0021.068673.0031.1109375v.00625c.01134.2951888.0052.5740764-.0125.8375-.0057.1019116-.01179.1645264-.0094.128125l-.0016.023437c-.02712.334142-.07268.6394322-.121875.909375-.0041.024586-.0088.049072-.01406.073438.0087-.037459.0054-.021334-.01094.059375l.0047-.03125c-.01985.1091935-.02341.1233528-.0094.046875-.0094.052126-.02141.1037516-.03594.1546875l-.0016.00469c-.157789.6019202-.650216 1.0577816-1.2624996 1.1687496-.1561808.02806-.3150072.0326-.4718752.05469-.1252808.290057-.279332.602506-.517188.917188l-.00156.0016c-.064527.08543-.1237144.155573-.1718752.2125l-.010937.0125c-.2654136.307207-.5747605.581543-.9312503.80625-.1038047.0666-.2002409.12126-.278125.1625l-.0107627.006205c-.4975674.258274-1.0684399.418231-1.671875.423438z" fill="#e4e4e4"/><path d="m9.5836869 7.5756668c-.00171.037105-.00567.075391-.00808.111678-.022093.2721564-.058778.5244802-.1002883.7522777-.00808.034973-.014074.069884-.02079.1030444-.00274.015076-.006.029091-.00879.044295-.00403.013823-.00678.028907-.0099.042168-.437653.0786448-.8777751.1301354-1.3193959.1545359-.2448953.0140769-.4913026.0185811-.7364584.0158319-.5021459-.0057559-1.005367-.0467353-1.5070046-.1233772-.0521057-.0070077-.1053583-.016016-.1576985-.0245252-.0198471-.0037228-.0397286-.0061282-.0586937-.0105097-.3459881-.0592344-.6871123-.1349374-1.0227623-.2279087-.0726457-.0190192-.1445549-.0389772-.2168225-.0613756-.0412623-.0114497-.082909-.0238371-.1228745-.0360997-.2361698-.0729507-.465569-.1529708-.6944859-.2401861-.4100747-.1585385-.8103551-.341853-1.1996423-.5507568.0529984-.4260652.155535-.9394393.3504165-1.4971475.0994543-.2846943.2224982-.5792609.3759675-.8819865l.00222-.00299c.1747686-.3458037.3887693-.6973674.6498646-1.0469724.0861867-.1158135.1734487-.226303.2639429-.3339141.9704905-1.1588851 2.1154274-1.8082377 2.9785069-2.1614841.00647.00593.013744.011024.019954.016961.014687.013438.030776.027346.045544.040474.2385614.2080276.4922214.457598.7470476.7508449.018934.022829.038769.044972.057527.068139.015634.017255.029709.035538.045264.052787.033519.042187.069277.084906.1042047.1286512.2824891.358477.5550727.7711096.7942273 1.2432041.017528.033975.034144.066819.050177.1006667.1263541.2595182.2418258.5372489.3419192.8339428.011074.032772.022547.066056.034406.1009543.00163.00633.00317.012469.00619.018724l-.0001955.0008182c.092273.2891616.1612171.5739807.2119154.8479952.00334.01591.006.032699.00945.047337.00691.038001.013033.07464.018377.1118346.046397.2793196.07344.5473908.085757.8055823.00141.038913.00291.076454.00274.1151192.00951.2422504.00351.4728639-.011726.691402" fill="#4282de"/><path d="m6.3999995 7.2002675a.79999956.79740454 0 0 1 -.7999995-.7974045.79999956.79740454 0 0 1  .4054686-.6930565c-.00199-.034178-.00547-.05451-.00547-.1043481v-.7974044l-.014843-.00779 1.1187495.0039-.3039059.8012838s.013869.062338.031252.1261518c.0000276.0001014.0007599-.0001008.0008 0a .79999956.79740454 0 0 1  .3679488.671255.79999956.79740454 0 0 1 -.7999996.7974045z" fill="#fff"/><path d="m7.0488281 2c-.1375658-.0012-.2771477.008425-.4160156.03125-1.291019.210348-2.2039857 1.4207417-2.3242187 2.8828125.2509344-.0927792.5027591-.1830783.7636718-.2636719.0484109-.0148543.1034361-.0312701.1582032-.046875.1878796-.8653421.7605135-1.3892322 1.5429687-1.5175781.1914116-.0312875.3823695-.0256219.5664063.0097656.0745062.013925.1475483.0332656.21875.0566407.3041736.0999499.5872224.2806798.8320312.5292968.0465262.04668.0894548.0944298.1308594.1464844.0492866.0578035.0833154.1342724.1269531.1992188.188568-.0096162.3760821-.0251846.5644531-.0273438.1759011-.0019731.3552512.0073541.5332032.0117188-.1190103-.2804564-.2572895-.5450267-.4316407-.7753907-.0480487-.0637-.0974131-.1236369-.1464843-.1816406-.2136692-.247315-.4567723-.4602862-.71875-.625-.0697363-.045625-.1419246-.0863887-.2148438-.125-.3697044-.1919037-.7728502-.3011263-1.1855469-.3046875z" fill="#3f3f3f" transform="matrix(.8 0 0 -.8 0 12.800264)"/><path d="m9.5836869 7.8640378c-.00171.038896-.00567.079029-.00808.1170675-.022093.2852906-.058778.5497915-.1002883.7885824-.00808.036661-.014074.073257-.02079.1080173-.00274.015803-.006.030495-.00879.046433-.00403.01449-.00678.030302-.0099.044203-.437653.0824398-.8777751.1364154-1.3193959.1619934-.2448953.0147563-.4913026.0194778-.7364584.016596-.5021459-.0060337-1.005367-.0489908-1.5070046-.1293314-.0521057-.0073459-.1053583-.0167889-.1576985-.0257088-.0198471-.0039024-.0397286-.0064239-.0586937-.0110168-.3459881-.0620931-.6871123-.1414495-1.0227623-.2389075-.0726457-.0199371-.1445549-.0408583-.2168225-.0643376-.0412623-.0120023-.082909-.0249875-.1228745-.0378419-.2361698-.0764712-.465569-.1603531-.6944859-.2517774-.4100747-.1661895-.8103551-.3583507-1.1996423-.5773361.0529984-.446627.155535-.9847764.3504165-1.5693994.0994543-.2984335.2224982-.6072158.3759675-.9245508l.00222-.00313c.1747686-.3624964.3887693-.7310265.6498646-1.0975033.0861867-.1214026.1734487-.2372243.2639429-.3500287.9704905-1.2148125 2.1154274-1.8955026 2.9785069-2.2657966.00647.00622.013744.011556.019954.01778.014687.014087.030776.028666.045544.042427.2385614.2180669.4922214.4796815.7470476.7870804.018934.023931.038769.047142.057527.071427.015634.018088.029709.037253.045264.055334.033519.044223.069277.089004.1042047.1348599.2824891.375777.5550727.8083231.7942273 1.3032007.017528.035615.034144.070044.050177.1055249.1263541.2720424.2418258.5631763.3419192.8741886.011074.034354.022547.069244.034406.1058263.00163.00664.00317.013071.00619.019628l-.0001955.0008577c.092273.3031165.1612171.6016808.2119154.8889192.00334.016678.006.034277.00945.049621.00691.039835.013033.078242.018377.1172317.046397.2927995.07344.5738077.085757.8444595.00141.040791.00291.080144.00274.1206748.00951.2539413.00351.4956842-.011726.7247688" fill="none"/></g></svg>

<svg xmlns="http://www.w3.org/2000/svg" width="16" height="16" version="1.1" viewBox="0 0 16 16" xml:space="preserve">
 <g transform="matrix(1.25,0,0,-1.25,0,16.00033)">
  <path style="fill:#cccccc" d="M 5.653125,12.800264 C 5.45901,12.801957 5.2562525,12.787803 5.046875,12.753389 3.1858383,12.449064 2.0241615,10.778612 1.865625,9.0362015 1.7927172,8.9989969 1.7161067,8.9734679 1.64375,8.934639 1.0616421,8.6221659 0.7314203,7.9840681 0.8125,7.328389 0.87715256,6.8086335 1.000789,6.1821506 1.2390625,5.500264 1.3610342,5.1511122 1.5134328,4.790152 1.7,4.4221392 l 0,-0.00156 C 1.9152266,3.9947216 2.1791146,3.5632432 2.496875,3.137764 2.5987927,3.0009128 2.7045554,2.8668312 2.815625,2.7346392 3.9949508,1.3263792 5.3742918,0.5445776 6.4140625,0.1190144 6.9875069,-0.1156534 7.6448869,0.00182281 8.1015624,0.4205768 8.0580074,0.3806536 8.1222834,0.4404544 8.1203124,0.437764 L 8.1375,0.4518264 8.1484376,0.462764 c 0.2883696,0.2522704 0.5902832,0.5478896 0.8921872,0.8953128 0.00792,0.00929 0.015733,0.018661 0.023438,0.028125 -5.712e-4,-6.888e-4 0.011262,0.014244 0.0125,0.015625 l 0.046875,0.05625 c 0.022674,0.024825 0.04456,0.050358 0.065625,0.076562 0.00732,0.00921 0.042909,0.051538 0.1015624,0.125 l 0.00625,0.00781 c 0.3432632,0.4355984 0.6738832,0.9381216 0.9640628,1.5109376 0.01885,0.03656 0.04137,0.081254 0.06875,0.1390624 0.152042,0.313768 0.29179,0.6486488 0.4125,1.0062504 l 0,0.00156 c 0.0053,0.015554 0.01624,0.046566 0.02813,0.08125 0.0023,0.00678 0.0037,0.00809 0.0062,0.015626 0.0061,0.018643 0.01181,0.037396 0.01719,0.05625 l 0.0047,0.01875 c 0.0043,0.013486 0.0085,0.027029 0.0125,0.040625 0.0076,0.030005 0.01442,0.060226 0.02031,0.090625 0.08863,0.2983217 0.166191,0.5941902 0.21875,0.8765627 l 0.0031,0.00938 c 0.0034,0.017135 0.0065,0.034325 0.0094,0.051563 0.01269,0.06976 0.01765,0.1051648 0.02187,0.1359375 0.05685,0.3422188 0.09109,0.672825 0.10625,0.990625 l 0,0.01875 c 5.61e-4,0.015482 0.0021,0.068673 0.0031,0.1109375 l 0,0.00625 c 0.01134,0.2951888 0.0052,0.5740764 -0.0125,0.8375 -0.0057,0.1019116 -0.01179,0.1645264 -0.0094,0.128125 l -0.0016,0.023437 c -0.02712,0.334142 -0.07268,0.6394322 -0.121875,0.909375 -0.0041,0.024586 -0.0088,0.049072 -0.01406,0.073438 0.0087,-0.037459 0.0054,-0.021334 -0.01094,0.059375 l 0.0047,-0.03125 c -0.01985,0.1091935 -0.02341,0.1233528 -0.0094,0.046875 -0.0094,0.052126 -0.02141,0.1037516 -0.03594,0.1546875 l -0.0016,0.00469 c -0.157789,0.6019202 -0.650216,1.0577816 -1.2624996,1.1687496 -0.1561808,0.02806 -0.3150072,0.0326 -0.4718752,0.05469 -0.1252808,0.290057 -0.279332,0.602506 -0.517188,0.917188 l -0.00156,0.0016 c -0.064527,0.08543 -0.1237144,0.155573 -0.1718752,0.2125 l -0.010937,0.0125 c -0.2654136,0.307207 -0.5747605,0.581543 -0.9312503,0.80625 -0.1038047,0.0666 -0.2002409,0.12126 -0.278125,0.1625 L 7.325,12.376826 C 6.8274326,12.6351 6.2565601,12.795057 5.653125,12.800264 Z"/>
  <path style="fill:#4282de" d="m 9.5836869,7.5756668 c -0.00171,0.037105 -0.00567,0.075391 -0.00808,0.111678 -0.022093,0.2721564 -0.058778,0.5244802 -0.1002883,0.7522777 -0.00808,0.034973 -0.014074,0.069884 -0.02079,0.1030444 -0.00274,0.015076 -0.006,0.029091 -0.00879,0.044295 -0.00403,0.013823 -0.00678,0.028907 -0.0099,0.042168 C 8.9981856,8.7077747 8.5580635,8.7592653 8.1164427,8.7836658 7.8715474,8.7977427 7.6251401,8.8022469 7.3799843,8.7994977 6.8778384,8.7937418 6.3746173,8.7527624 5.8729797,8.6761205 5.820874,8.6691128 5.7676214,8.6601045 5.7152812,8.6515953 5.6954341,8.6478725 5.6755526,8.6454671 5.6565875,8.6410856 5.3105994,8.5818512 4.9694752,8.5061482 4.6338252,8.4131769 4.5611795,8.3941577 4.4892703,8.3741997 4.4170027,8.3518013 4.3757404,8.3403516 4.3340937,8.3279642 4.2941282,8.3157016 4.0579584,8.2427509 3.8285592,8.1627308 3.5996423,8.0755155 3.1895676,7.916977 2.7892872,7.7336625 2.4,7.5247587 2.4529984,7.0986935 2.555535,6.5853194 2.7504165,6.0276112 2.8498708,5.7429169 2.9729147,5.4483503 3.126384,5.1456247 l 0.00222,-0.00299 C 3.3033726,4.796831 3.5173733,4.4452673 3.7784686,4.0956623 3.8646553,3.9798488 3.9519173,3.8693593 4.0424115,3.7617482 5.012902,2.6028631 6.1578389,1.9535105 7.0209184,1.6002641 c 0.00647,0.00593 0.013744,0.011024 0.019954,0.016961 0.014687,0.013438 0.030776,0.027346 0.045544,0.040474 0.2385614,0.2080276 0.4922214,0.457598 0.7470476,0.7508449 0.018934,0.022829 0.038769,0.044972 0.057527,0.068139 0.015634,0.017255 0.029709,0.035538 0.045264,0.052787 0.033519,0.042187 0.069277,0.084906 0.1042047,0.1286512 0.2824891,0.358477 0.5550727,0.7711096 0.7942273,1.2432041 0.017528,0.033975 0.034144,0.066819 0.050177,0.1006667 0.1263541,0.2595182 0.2418258,0.5372489 0.3419192,0.8339428 0.011074,0.032772 0.022547,0.066056 0.034406,0.1009543 0.00163,0.00633 0.00317,0.012469 0.00619,0.018724 l -1.955e-4,8.182e-4 c 0.092273,0.2891616 0.1612171,0.5739807 0.2119154,0.8479952 0.00334,0.01591 0.006,0.032699 0.00945,0.047337 0.00691,0.038001 0.013033,0.07464 0.018377,0.1118346 0.046397,0.2793196 0.07344,0.5473908 0.085757,0.8055823 0.00141,0.038913 0.00291,0.076454 0.00274,0.1151192 0.00951,0.2422504 0.00351,0.4728639 -0.011726,0.691402"/>
  <path style="fill:#ffffff" d="M 6.3999995,7.2002675 A 0.79999956,0.79740454 0 0 1 5.6,6.402863 0.79999956,0.79740454 0 0 1 6.0054686,5.7098065 c -0.00199,-0.034178 -0.00547,-0.05451 -0.00547,-0.1043481 l 0,-0.7974044 -0.014843,-0.00779 1.1187495,0.0039 -0.3039059,0.8012838 c 0,0 0.013869,0.062338 0.031252,0.1261518 2.76e-5,1.014e-4 7.599e-4,-1.008e-4 8e-4,0 A 0.79999956,0.79740454 0 0 1 7.2,6.4028546 0.79999956,0.79740454 0 0 1 6.4000004,7.2002591 Z"/>
  <path style="fill:#3f3f3f" d="M 7.0488281 2 C 6.9112623 1.9988 6.7716804 2.008425 6.6328125 2.03125 C 5.3417935 2.241598 4.4288268 3.4519917 4.3085938 4.9140625 C 4.5595282 4.8212833 4.8113529 4.7309842 5.0722656 4.6503906 C 5.1206765 4.6355363 5.1757017 4.6191205 5.2304688 4.6035156 C 5.4183484 3.7381735 5.9909823 3.2142834 6.7734375 3.0859375 C 6.9648491 3.05465 7.155807 3.0603156 7.3398438 3.0957031 C 7.41435 3.1096281 7.4873921 3.1289687 7.5585938 3.1523438 C 7.8627674 3.2522937 8.1458162 3.4330236 8.390625 3.6816406 C 8.4371512 3.7283206 8.4800798 3.7760704 8.5214844 3.828125 C 8.570771 3.8859285 8.6047998 3.9623974 8.6484375 4.0273438 C 8.8370055 4.0177276 9.0245196 4.0021592 9.2128906 4 C 9.3887917 3.9980269 9.5681418 4.0073541 9.7460938 4.0117188 C 9.6270835 3.7312624 9.4888043 3.4666921 9.3144531 3.2363281 C 9.2664044 3.1726281 9.21704 3.1126912 9.1679688 3.0546875 C 8.9542996 2.8073725 8.7111965 2.5944013 8.4492188 2.4296875 C 8.3794825 2.3840625 8.3072942 2.3432988 8.234375 2.3046875 C 7.8646706 2.1127838 7.4615248 2.0035612 7.0488281 2 z" transform="matrix(0.8,0,0,-0.8,0,12.800264)"/>
  <path style="fill:none" d="m 9.5836869,7.8640378 c -0.00171,0.038896 -0.00567,0.079029 -0.00808,0.1170675 -0.022093,0.2852906 -0.058778,0.5497915 -0.1002883,0.7885824 -0.00808,0.036661 -0.014074,0.073257 -0.02079,0.1080173 -0.00274,0.015803 -0.006,0.030495 -0.00879,0.046433 -0.00403,0.01449 -0.00678,0.030302 -0.0099,0.044203 C 8.9981856,9.0507808 8.5580635,9.1047564 8.1164427,9.1303344 7.8715474,9.1450907 7.6251401,9.1498122 7.3799843,9.1469304 6.8778384,9.1408967 6.3746173,9.0979396 5.8729797,9.017599 5.820874,9.0102531 5.7676214,9.0008101 5.7152812,8.9918902 5.6954341,8.9879878 5.6755526,8.9854663 5.6565875,8.9808734 5.3105994,8.9187803 4.9694752,8.8394239 4.6338252,8.7419659 4.5611795,8.7220288 4.4892703,8.7011076 4.4170027,8.6776283 4.3757404,8.665626 4.3340937,8.6526408 4.2941282,8.6397864 4.0579584,8.5633152 3.8285592,8.4794333 3.5996423,8.388009 3.1895676,8.2218195 2.7892872,8.0296583 2.4,7.8106729 2.4529984,7.3640459 2.555535,6.8258965 2.7504165,6.2412735 2.8498708,5.94284 2.9729147,5.6340577 3.126384,5.3167227 l 0.00222,-0.00313 C 3.3033726,4.9510963 3.5173733,4.5825662 3.7784686,4.2160894 3.8646553,4.0946868 3.9519173,3.9788651 4.0424115,3.8660607 5.012902,2.6512482 6.1578389,1.9705581 7.0209184,1.6002641 c 0.00647,0.00622 0.013744,0.011556 0.019954,0.01778 0.014687,0.014087 0.030776,0.028666 0.045544,0.042427 0.2385614,0.2180669 0.4922214,0.4796815 0.7470476,0.7870804 0.018934,0.023931 0.038769,0.047142 0.057527,0.071427 0.015634,0.018088 0.029709,0.037253 0.045264,0.055334 0.033519,0.044223 0.069277,0.089004 0.1042047,0.1348599 0.2824891,0.375777 0.5550727,0.8083231 0.7942273,1.3032007 0.017528,0.035615 0.034144,0.070044 0.050177,0.1055249 0.1263541,0.2720424 0.2418258,0.5631763 0.3419192,0.8741886 0.011074,0.034354 0.022547,0.069244 0.034406,0.1058263 0.00163,0.00664 0.00317,0.013071 0.00619,0.019628 l -1.955e-4,8.577e-4 c 0.092273,0.3031165 0.1612171,0.6016808 0.2119154,0.8889192 0.00334,0.016678 0.006,0.034277 0.00945,0.049621 0.00691,0.039835 0.013033,0.078242 0.018377,0.1172317 0.046397,0.2927995 0.07344,0.5738077 0.085757,0.8444595 0.00141,0.040791 0.00291,0.080144 0.00274,0.1206748 0.00951,0.2539413 0.00351,0.4956842 -0.011726,0.7247688"/>
 </g>
</svg>
